svg/u1f22f.svg

<svg viewBox="0 0 128 128" xmlns="http://www.w3.org/2000/svg">
  <g>
    <path d="M116,4H12c-4.42,0-8,3.58-8,8v104c0,4.42,3.58,8,8,8h104c4.42,0,8-3.58,8-8V12 C124,7.58,120.42,4,116,4z" fill="#689F38"/>
    <path d="M109.7,4H11.5C7.37,4.03,4.03,7.37,4,11.5v97.9c-0.01,4.14,3.34,7.49,7.48,7.5c0.01,0,0.01,0,0.02,0 h98.1c4.14,0.01,7.49-3.34,7.5-7.48c0-0.01,0-0.01,0-0.02V11.5c0.09-4.05-3.13-7.41-7.18-7.5C109.85,4,109.77,4,109.7,4z" fill="#7CB342"/>
    <path d="M39.7,12.9c0-2.3-1.6-3-10.8-2.7c-7.7,0.3-11.5,1.2-13.8,4s-2.9,8.5-3,15.3c0,4.8,0,9.3,2.5,9.3 c3.4,0,3.4-7.9,6.2-12.3C26.2,17.8,39.7,15.9,39.7,12.9z" fill="#AED581"/>
    <path d="M53.4,69.2l-8.8,2.6c-0.43,0.14-0.72,0.55-0.7,1v23.6c0,4.5-0.9,6.7-3.6,8.1 c-2.5,1.2-6,1.5-11.3,1.6c-0.85,0.01-1.6-0.57-1.8-1.4c-0.32-1.36-0.72-2.69-1.2-4c-0.36-0.96,0.13-2.02,1.08-2.38 c0.2-0.07,0.41-0.11,0.62-0.12c2.8,0,5.2,0,6-0.1c1.2,0,1.7-0.4,1.7-1.7V75.7c0.03-0.55-0.4-1.02-0.95-1.05 c-0.12-0.01-0.24,0.01-0.35,0.05c-3,0.8-5.8,1.6-8.4,2.3c-0.98,0.28-2.01-0.28-2.29-1.26c0-0.01-0.01-0.02-0.01-0.04 c-0.4-1.4-0.9-3.3-1.3-4.7c-0.29-0.9,0.21-1.86,1.11-2.15c0.06-0.02,0.13-0.04,0.19-0.05c3.3-0.8,7.1-1.7,11.2-2.8 c0.46-0.12,0.78-0.53,0.8-1V48.9c-0.04-0.54-0.46-0.96-1-1H25c-0.99,0.01-1.79-0.79-1.8-1.78c0-0.01,0-0.01,0-0.02v-4.5 c-0.01-0.99,0.79-1.79,1.78-1.8c0.01,0,0.01,0,0.02,0h9.4c0.54-0.04,0.96-0.46,1-1v-15c-0.01-0.99,0.79-1.79,1.78-1.8 c0.01,0,0.01,0,0.02,0H42c0.99-0.01,1.79,0.79,1.8,1.78c0,0.01,0,0.01,0,0.02v14.9c0.04,0.54,0.46,0.96,1,1h6.9 c0.99-0.01,1.79,0.79,1.8,1.78c0,0.01,0,0.01,0,0.02V46c0.01,0.99-0.79,1.79-1.78,1.8c-0.01,0-0.01,0-0.02,0h-6.9 c-0.54,0.04-0.96,0.46-1,1v13.3c-0.03,0.55,0.4,1.02,0.95,1.05c0.12,0.01,0.24-0.01,0.35-0.05l6.6-1.8 c0.94-0.29,1.94,0.23,2.23,1.17c0.03,0.11,0.06,0.22,0.07,0.33l0.6,4.3C54.83,68.01,54.3,68.94,53.4,69.2z M72,58.6 c-10.3,0-13.6-3.2-13.6-12.3V24c-0.01-0.99,0.79-1.79,1.78-1.8c0.01,0,0.01,0,0.02,0H65c0.99-0.01,1.79,0.79,1.8,1.78 c0,0.01,0,0.01,0,0.02v6.8c-0.01,0.99,0.79,1.79,1.78,1.8c0.01,0,0.01,0,0.02,0h32.5c0.99-0.01,1.79,0.79,1.8,1.78 c0,0.01,0,0.01,0,0.02v3.7c0.01,0.99-0.79,1.79-1.78,1.8c-0.01,0-0.01,0-0.02,0H68.7c-0.99-0.01-1.79,0.79-1.8,1.78 c0,0.01,0,0.01,0,0.02v4.7c0,3.6,1,4.9,5,4.9h22.5c2.5,0,6.3-0.1,8.9-0.4c0.99-0.11,1.89,0.6,2,1.6c0,0,0,0,0,0 c0.1,1.2,0.3,2.5,0.4,3.7c0.14,0.96-0.52,1.85-1.48,1.99c-0.04,0.01-0.08,0.01-0.12,0.01c-2.4,0.2-6,0.3-9.3,0.3L72,58.6z M60.8,65.6h39.8c0.99-0.01,1.79,0.79,1.8,1.78c0,0.01,0,0.01,0,0.02v36.3c0.01,0.99-0.79,1.79-1.78,1.8c-0.01,0-0.01,0-0.02,0 h-4.8c-0.99,0.01-1.79-0.79-1.8-1.78c0-0.01,0-0.01,0-0.02c0.01-0.99-0.79-1.79-1.78-1.8c-0.01,0-0.01,0-0.02,0H68.8 c-0.99-0.01-1.79,0.79-1.8,1.78c0,0.01,0,0.01,0,0.02v0.5c0.01,0.99-0.79,1.79-1.78,1.8c-0.01,0-0.01,0-0.02,0h-4.4 c-0.99,0.01-1.79-0.79-1.8-1.78c0-0.01,0-0.01,0-0.02V67.4c-0.07-0.93,0.63-1.73,1.55-1.8C60.63,65.59,60.72,65.59,60.8,65.6z M67,74.5v4c-0.01,0.99,0.79,1.79,1.78,1.8c0.01,0,0.01,0,0.02,0h23.3c0.99,0.01,1.79-0.79,1.8-1.78c0-0.01,0-0.01,0-0.02v-4 c0.01-0.99-0.79-1.79-1.78-1.8c-0.01,0-0.01,0-0.02,0H68.8c-0.99-0.01-1.79,0.79-1.8,1.78C67,74.49,67,74.49,67,74.5z M93.9,93.2 v-4.3c0.01-0.99-0.79-1.79-1.78-1.8c-0.01,0-0.01,0-0.02,0H68.8c-0.99-0.01-1.79,0.79-1.8,1.78c0,0.01,0,0.01,0,0.02v4.3 c-0.01,0.99,0.79,1.79,1.78,1.8c0.01,0,0.01,0,0.02,0h23.3c0.99,0.01,1.79-0.79,1.8-1.78C93.9,93.21,93.9,93.21,93.9,93.2z" fill="#FAFAFA"/>
  </g>
</svg>

<svg viewBox="0 0 128 128" xmlns="http://www.w3.org/2000/svg">
  <defs/>
  <path d="M116,4 L12,4 C7.58,4 4,7.58 4,12 L4,116 C4,120.42 7.58,124 12,124 L116,124 C120.42,124 124,120.42 124,116 L124,12 C124,7.58 120.42,4 116,4 Z" fill="#689F38"/>
  <path d="M109.7,4 L11.5,4 C7.37,4.03 4.03,7.37 4,11.5 L4,109.4 C3.99,113.54 7.34,116.89 11.48,116.9 C11.49,116.9 11.49,116.9 11.5,116.9 L109.6,116.9 C113.74,116.91 117.09,113.56 117.1,109.42 C117.1,109.41 117.1,109.41 117.1,109.4 L117.1,11.5 C117.19,7.45 113.97,4.09 109.92,4 C109.85,4 109.77,4 109.7,4 Z" fill="#7CB342"/>
  <path d="M39.7,12.9 C39.7,10.6 38.1,9.9 28.9,10.2 C21.2,10.5 17.4,11.4 15.1,14.2 C12.8,17 12.2,22.7 12.1,29.5 C12.1,34.3 12.1,38.8 14.6,38.8 C18,38.8 18,30.9 20.8,26.5 C26.2,17.8 39.7,15.9 39.7,12.9 Z" fill="#AED581"/>
  <path d="M53.4,69.2 L44.6,71.8 C44.17,71.94 43.88,72.35 43.9,72.8 L43.9,96.4 C43.9,100.9 43,103.1 40.3,104.5 C37.8,105.7 34.3,106 29,106.1 C28.15,106.11 27.4,105.53 27.2,104.7 C26.88,103.34 26.48,102.01 26,100.7 C25.64,99.74 26.13,98.68 27.08,98.32 C27.28,98.25 27.49,98.21 27.7,98.2 C30.5,98.2 32.9,98.2 33.7,98.1 C34.9,98.1 35.4,97.7 35.4,96.4 L35.4,75.7 C35.43,75.15 35,74.68 34.45,74.65 C34.33,74.64 34.21,74.66 34.1,74.7 C31.1,75.5 28.3,76.3 25.7,77 C24.72,77.28 23.69,76.72 23.41,75.74 C23.41,75.73 23.4,75.72 23.4,75.7 C23,74.3 22.5,72.4 22.1,71 C21.81,70.1 22.31,69.14 23.21,68.85 C23.27,68.83 23.34,68.81 23.4,68.8 C26.7,68 30.5,67.1 34.6,66 C35.06,65.88 35.38,65.47 35.4,65 L35.4,48.9 C35.36,48.36 34.94,47.94 34.4,47.9 L25,47.9 C24.01,47.91 23.21,47.11 23.2,46.12 C23.2,46.11 23.2,46.11 23.2,46.1 L23.2,41.6 C23.19,40.61 23.99,39.81 24.98,39.8 C24.99,39.8 24.99,39.8 25,39.8 L34.4,39.8 C34.94,39.76 35.36,39.34 35.4,38.8 L35.4,23.8 C35.39,22.81 36.19,22.01 37.18,22 C37.19,22 37.19,22 37.2,22 L42,22 C42.99,21.99 43.79,22.79 43.8,23.78 C43.8,23.79 43.8,23.79 43.8,23.8 L43.8,38.7 C43.84,39.24 44.26,39.66 44.8,39.7 L51.7,39.7 C52.69,39.69 53.49,40.49 53.5,41.48 C53.5,41.49 53.5,41.49 53.5,41.5 L53.5,46 C53.51,46.99 52.71,47.79 51.72,47.8 C51.71,47.8 51.71,47.8 51.7,47.8 L44.8,47.8 C44.26,47.84 43.84,48.26 43.8,48.8 L43.8,62.1 C43.77,62.65 44.2,63.12 44.75,63.15 C44.87,63.16 44.99,63.14 45.1,63.1 L51.7,61.3 C52.64,61.01 53.64,61.53 53.93,62.47 C53.96,62.58 53.99,62.69 54,62.8 L54.6,67.1 C54.83,68.01 54.3,68.94 53.4,69.2 Z M72,58.6 C61.7,58.6 58.4,55.4 58.4,46.3 L58.4,24 C58.39,23.01 59.19,22.21 60.18,22.2 C60.19,22.2 60.19,22.2 60.2,22.2 L65,22.2 C65.99,22.19 66.79,22.99 66.8,23.98 C66.8,23.99 66.8,23.99 66.8,24 L66.8,30.8 C66.79,31.79 67.59,32.59 68.58,32.6 C68.59,32.6 68.59,32.6 68.6,32.6 L101.1,32.6 C102.09,32.59 102.89,33.39 102.9,34.38 C102.9,34.39 102.9,34.39 102.9,34.4 L102.9,38.1 C102.91,39.09 102.11,39.89 101.12,39.9 C101.11,39.9 101.11,39.9 101.1,39.9 L68.7,39.9 C67.71,39.89 66.91,40.69 66.9,41.68 C66.9,41.69 66.9,41.69 66.9,41.7 L66.9,46.4 C66.9,50 67.9,51.3 71.9,51.3 L94.4,51.3 C96.9,51.3 100.7,51.2 103.3,50.9 C104.29,50.79 105.19,51.5 105.3,52.5 C105.3,52.5 105.3,52.5 105.3,52.5 C105.4,53.7 105.6,55 105.7,56.2 C105.84,57.16 105.18,58.05 104.22,58.19 C104.18,58.2 104.14,58.2 104.1,58.2 C101.7,58.4 98.1,58.5 94.8,58.5 L72,58.6 Z M60.8,65.6 L100.6,65.6 C101.59,65.59 102.39,66.39 102.4,67.38 C102.4,67.39 102.4,67.39 102.4,67.4 L102.4,103.7 C102.41,104.69 101.61,105.49 100.62,105.5 C100.61,105.5 100.61,105.5 100.6,105.5 L95.8,105.5 C94.81,105.51 94.01,104.71 94,103.72 C94,103.71 94,103.71 94,103.7 C94.01,102.71 93.21,101.91 92.22,101.9 C92.21,101.9 92.21,101.9 92.2,101.9 L68.8,101.9 C67.81,101.89 67.01,102.69 67,103.68 C67,103.69 67,103.69 67,103.7 L67,104.2 C67.01,105.19 66.21,105.99 65.22,106 C65.21,106 65.21,106 65.2,106 L60.8,106 C59.81,106.01 59.01,105.21 59,104.22 C59,104.21 59,104.21 59,104.2 L59,67.4 C58.93,66.47 59.63,65.67 60.55,65.6 C60.63,65.59 60.72,65.59 60.8,65.6 Z M67,74.5 L67,78.5 C66.99,79.49 67.79,80.29 68.78,80.3 C68.79,80.3 68.79,80.3 68.8,80.3 L92.1,80.3 C93.09,80.31 93.89,79.51 93.9,78.52 C93.9,78.51 93.9,78.51 93.9,78.5 L93.9,74.5 C93.91,73.51 93.11,72.71 92.12,72.7 C92.11,72.7 92.11,72.7 92.1,72.7 L68.8,72.7 C67.81,72.69 67.01,73.49 67,74.48 C67,74.49 67,74.49 67,74.5 Z M93.9,93.2 L93.9,88.9 C93.91,87.91 93.11,87.11 92.12,87.1 C92.11,87.1 92.11,87.1 92.1,87.1 L68.8,87.1 C67.81,87.09 67.01,87.89 67,88.88 C67,88.89 67,88.89 67,88.9 L67,93.2 C66.99,94.19 67.79,94.99 68.78,95 C68.79,95 68.79,95 68.8,95 L92.1,95 C93.09,95.01 93.89,94.21 93.9,93.22 C93.9,93.21 93.9,93.21 93.9,93.2 Z" fill="#FAFAFA"/>
</svg>
